app/img/hover_marker.svg

<svg height="32" viewBox="0 0 20 32" width="20" xmlns="http://www.w3.org/2000/svg"><path d="m6.326 22.638c-1.16-2.057-2.505-3.956-3.748-5.95-.415-.667-.774-1.37-1.173-2.062-.797-1.382-1.444-2.984-1.403-5.063.04-2.03.627-3.66 1.474-4.992 1.393-2.19 3.727-3.985 6.857-4.457 2.56-.386 4.96.266 6.662 1.26 1.3348909.78098306 2.4622835 1.87167622 3.287 3.18.854 1.337 1.442 2.916 1.492 4.975.0195668.9619076-.1120361 1.9209217-.39 2.842-.247.82-.643 1.506-.996 2.238-.688 1.43-1.55 2.74-2.416 4.05-2.578 3.905-4.998 7.886-6.058 13.342-.732-3.597-2.024-6.591-3.588-9.363zm3.562-9.634c1.9131144 0 3.464-1.5508856 3.464-3.464 0-1.91311437-1.5508856-3.464-3.464-3.464-1.91311437 0-3.464 1.55088563-3.464 3.464 0 1.9131144 1.55088563 3.464 3.464 3.464z" fill="#03a9f4"/></svg>

<?xml version="1.0" encoding="UTF-8"?>
<svg width="20px" height="32px" viewBox="0 0 20 32" version="1.1" xmlns="http://www.w3.org/2000/svg" xmlns:xlink="http://www.w3.org/1999/xlink">
    <g id="Page-1" stroke="none" stroke-width="1" fill="none" fill-rule="evenodd">
        <g id="Layer-1" fill-rule="nonzero" fill="#03A9F4">
            <path d="M6.326,22.638 C5.166,20.581 3.821,18.682 2.578,16.688 C2.163,16.021 1.804,15.318 1.405,14.626 C0.608,13.244 -0.039,11.642 0.002,9.563 C0.042,7.533 0.629,5.903 1.476,4.571 C2.869,2.381 5.203,0.586 8.333,0.114 C10.893,-0.272 13.293,0.38 14.995,1.374 C16.3298909,2.15498306 17.4572835,3.24567622 18.282,4.554 C19.136,5.891 19.724,7.47 19.774,9.529 C19.7935668,10.4909076 19.6619639,11.4499217 19.384,12.371 C19.137,13.191 18.741,13.877 18.388,14.609 C17.7,16.039 16.838,17.349 15.972,18.659 C13.394,22.564 10.974,26.545 9.914,32.001 C9.182,28.404 7.89,25.41 6.326,22.638 Z M9.888,13.004 C11.8011144,13.004 13.352,11.4531144 13.352,9.54 C13.352,7.62688563 11.8011144,6.076 9.888,6.076 C7.97488563,6.076 6.424,7.62688563 6.424,9.54 C6.424,11.4531144 7.97488563,13.004 9.888,13.004 Z" id="Combined-Shape"></path>
        </g>
    </g>
</svg>
